X:1
T:Le Moulin
T:Le Moulin
T:Gabriel Pierné (1863-1937)
T:Edouard Guinand
C:Gabriel Pierné (1863-1937)
Z:Edouard Guina
%%score 1 { 2 | ( 3 4 ) }
L:1/8
Q:1/4=184
M:3/4
K:C
V:1 treble nm="Voice"
V:2 treble nm="Piano"
V:3 treble 
V:4 treble 
V:1
"^Allegro." z6 | z6 | z6 | z6 | z6 | z6 | z6 | z6 | z6 | z6 | z6 | %11
w: |||||||||||
!f!"^Très rythmé et un peu lourd" A4 G2 | E4 G2 | A6 | A2 z2 A A | e6- | e6- | e6- | e z A2 A2 | %19
w: Tour- ne,|tour- ne|tour-|ne, mon mou-|lin!|_||* Un bon|
 d6 | c2 B2 A2 | B6 | c2 z2 G2 | A2 B2 c2 | B4 A2 | G4 z2 | c4 G2 | (F3 G) A2 | %28
w: vent|gon- fle ton|ai-|le; De|blé le gre-|nier est|plein,|Le meu-|nier _ fait|
 (A3/2B/4A/4 G2) F2 | E6- | E6 | E6- | E z z2 z2 | A4 G2 | E4 G2 | A6 | A2 z2 A A | e6- | e6- | %39
w: sen- * * * ti-|nel-||le.|_|Tour- ne,|tour- ne,|tour-|ne, mon mou-|lin!|_|
 e6- | e6- | e4- e z | z6 | z6 | z6 | z6 | z6[Q:1/4=178]"_T" | %47
w: ||||||||
[Q:1/4=174]"_Meno All- , ma poco"[Q:1/4=174]"^Meno All- , ma poco" E2"^o""^o" C2 D2 | E2 C2 D2 | %49
w: A ta tran-|qui- le ca-|
 G6 | G2- G z G2 | A2 F2 G2 | (A2 F2) G2 |!<(! A6- | A4- A!<)! z | %55
w: den-|ce * L'en-|fant dort sur|mes * ge-|noux,|_ _|
[Q:1/4=184]"^A tempo."!f! d2- d z d2 | (c3 B) A2 | B4 G2 | A4 A2 | z2!mf! G2 E2 | (A2 E2) A2 | %61
w: Moi, * je|rê- ve ar-|gent qui|dan- se,|Du mar-|ché _ jus-|
{/A} G4 E2 | E4- E z |!p![Q:1/4=164]"_Meno Allegro"[Q:1/4=164]"^Meno Allegro" E2 C2 D2 | E2 C2 D2 | %65
w: que chez|nous... _|A ta tran-|quil- le ca-|
 G6- | G6 | C6- | C z z2 z2 | z6 | z6 |!f![Q:1/4=184]"_1er tempo."[Q:1/4=184]"^1er tempo." A4 G2 | %72
w: den-||ce.|_|||Tour- ne,|
 E4 G2 | A6 | A2 z2 A A | e6- | e6- | e6- | e z A2 A2 | d6 | c2 B2 A2 | B6 | c2 z2 G2 | A2 B2 c2 | %84
w: tour- ne|tour-|ne, mon mou-|lin!|_||* Un bon|vent|gon- fle ton|ai-|le; De|blé le gre-|
 B4 A2 | G4 z2 | c4 G2 | (F3 G) A2 | (A3/2B/4A/4 G2) F2 | E6- | E6 | E6- | E z z2 z2 | A4 G2 | %94
w: nier est|plein,|Le meu-|nier _ fait|sen- * * * ti-|nel-||le.|_|Tour- ne,|
 E4 G2 | A6 | A2 z2 AA | e6- | e6- | e6- | e6- | e4- e z | z6 | z6 | z6 | z6 | z6 |!ff! F2 G2 _B2 | %108
w: tour- ne,|tour-|ne, mon mou-|lin!|_|||||||||Quand le mou-|
 A2 G2 c2 | c6- | c4- c z | z2 !tenuto!d2 A2 | (c4 G) z | !tenuto!d2 d2 A2 | c4 G2 | %115
w: lin tour- ne|fort,|_ _|C'est la|joi- e|et la ri-|ches- se;|
 !tenuto!A2 !tenuto!F2 !tenuto!G2 | !tenuto!A2 !tenuto!F2 !tenuto!G2 | F6- | F6- | F z z4 | z6 | %121
w: Pour mois- son-|ner que d'ef-|fort!|_|||
!f! z2 F2 F2 | _B6 | A2 G2 F2 | (E2 D2) E z |!ff! F2 G2 _B2 | A2 G2 c2 |!>(! c6- | c6- || %129
w: Mais en-|fin|la pei- ne|ces- * se|Quand le mou-|lin tour- ne|fort.|_|
[K:Ab] c6- | c6-!>)! | c z z4 | z6 | z6 | z2!pp! C2 C2 | C4 z2 | C2 C2 C2 | A6 | A4 z2 | G2 G2 F2 | %140
w: |||||De bien|loin,|sur la col-|li-|ne,|On l'a- per-|
 =D2 D2 F2 | G6- | G4- G z |!<(! G4 G2 | ^F4 F2!<)! |!>(! G4 G2 | ^F4!>)! F2 | z2!f! =F2 F2 | %148
w: çoit se mou-|voir,|_ _|Et lors-|que le|jour dé-|cli- ne,|C'est un|
 _D4 D2 | z2!p! F2 F2 | D6 |!pp! C4 C2 | C6- | C4 z2 | C2 C2 C2 |!<(! A6- |"^cresc." A6 | A6-!<)! | %158
w: spec- tre|qu'on croit|voir|De bien|loin|_|sur la col-|li-||ne.|
"^Rit." A4- A2 ||[K:C]!f![Q:1/4=184]"_1er tempo."[Q:1/4=184]"^1er tempo." A4 G2 | E4 G2 | A6 | %162
w: _ _|Tour- ne,|tour- ne|tour-|
 A2 z2 A A | e6- | e6- | e6- | e z A2 A2 | d6 | c2 B2 A2 | B6 | c2 z2 G2 | A2 B2 c2 | B4 A2 | %173
w: ne, mon mou-|lin!|_||* Un bon|vent|gon- fle ton|ai-|le; De|blé le gre-|nier est|
 G4 z2 | c4 G2 | (F3 G) A2 | (A3/2B/4A/4 G2) F2 | E6- | E6 | E6- | E z z2 z2 | A4 G2 | E4 G2 | A6 | %184
w: plein,|Le meu-|nier _ fait|sen- * * * ti-|nel-||le.|_|Tour- ne,|tour- ne,|tour-|
 A2 z2 AA | e6- | e6- | e6- | e6- | e4- e z | z6 | z6 | z6 | z6 | z6 | z6 | z6 | z6 |] %198
w: ne, mon mou-|lin!|_||||||||||||
V:2
!p! .a z .e z .c z | .e z .g z .d z | .e z"_cresc." .c z .A z | .c z .g z .d z | .a z .e z .c.e | %5
 .g.d .e z .c.A | .c.e .g z .d z | .a z .c.e.g.d | .e.c.A.c.g.d | .a.e.c.e.g.d | .e.c.A.c.g.d | %11
 .a.e!f!.c.e.g.d | .e.c.A.c.g.d | .a.e.c.e.g.d | .e.c.A.c.g.d | .a.e.c.e.g.d | .e.c.A.c.g.d | %17
 .a.e.c.e.g.d | .e.c.A.c.e.c | .f.B.F.B.f.B | .f.c.F.c.f.c | .f.B.F.B.f.B | .e.c.E.c.e.c | %23
 .e.A.E.A.e.A | .d.A.D.A.d.A | .d.G.D.G.d.G | .c.G.C.G.c.G | .c.F.C.F.c.F | .B.F.B,.F.B.F | %29
 .B.E.B,.E.C.E | .B.E.B,.E.C.E | .B.E.B,.E.C.F | .D.G.E.A.F.B | .a.e.c.e.g.d | .e.c.A.c.g.d | %35
 .a.e.c.e.g.d | .e.c.A.c.g.d | .a.e.c.e.g.d | .e.c.A.c.g.d | .a.e.c.e.g.d | .e.c.A.B.c.G | %41
 .A.E.C.E.G.D | .E.C.A,.B,.C.G, |[K:bass] .A,.E,"_dim.".C,.E,.G,.D, | .A,.E,.C,.E,.G,.D, | %45
 .A,.C,.G,.D,.A,.C, | .G,.D,"_dim.".A,.C,.B,.D, |[K:treble]"^o" [CE]x[A,C]x[B,D] x | %48
 [CE]x[A,C]x[B,D] x | [CE]x[A,C]x[B,D] x | [CE]x[DF]x[EG] x | [FA]A,[DF]A,[EG]A, | %52
 [FA]A,[DF]A,[EG]A, |!<(! [FA]A,[DF]A,[EG]A, | [FA]A,[FB]D[Fc]D!<)! |!f! .d.F.B,.F.d.F | %56
 .c.F.C.F.c.F | .B.F.B,.F.B.F | .A.E.C.E.A.E | .G.B,.G,.B,.G.B, | .A.E.C.E.A.E | .G.B,.G,.B,.E.C | %62
 .E.B,.G,.B,.E.C | [CE]x[A,C]x[B,D] x | [CE]x[A,C]x[B,D] x | [CE]x[A,C]x[B,D] x | %66
 [CE]x[DF]x[EG] x | [FA]A,[DF]A,[EG]A, | [FA]A,[DF]A,[EG]A, |!<(! [FA]A,[FB]D[Fc]D | %70
 [Ad]F[Ae]F[df]A!<)! | .a.e.c.e.g.d | .e.c.A.c.g.d | .a.e.c.e.g.d | .e.c.A.c.g.d | .a.e.c.e.g.d | %76
 .e.c.A.c.g.d | .a.e.c.e.g.d | .e.c.A.c.e.c | .f.B.F.B.f.B | .f.c.F.c.f.c | .f.B.F.B.f.c | %82
 .e.c.E.c.e.c | .e.A.E.A.e.A | .d.A.D.A.d.A | .d.G.D.G.d.G | .c.G.C.G.c.G | .c.F.C.F.c.F | %88
 .B.F.B,.F.B.F | .B.E.B,.E.C.E | .B.E.B,.E.C.E | .B.E.B,.E.C.F | .D.G.E.A.F.B | .a.e.c.e.g.d | %94
 .e.c.A.c.g.d | .a.e.c.e.g.d | .e.c.A.c.g.d | .a.e.c.e.g.d | .e.c.A.c.g.d | .a.e.c.e.g.d | %100
 .e.c.A.B.c.G | .A.E.C.E.G.D | .E.C.A,.B,.C.G, |[K:bass] .A,.E,.C,.E,.G,.D, | .A,.E,.C,.E,.G,.D, | %105
 .A,.C,.G,.D,.A,.C, | .G,.D,.A,.C,.[_B,C].C, |[K:treble] (3z ([CF]A,) (3z ([DG]_B,) (3z ([F_B]D) | %108
 (3z ([FA]C) (3z ([FG]_B,) (3z ([Fc]B,) | (3z ([Fc]_B,) (3z ([Fc]B,) (3z ([Fc]B,) | %110
 (3z ([Fc]_B,) (3z ([Fc]B,) (3z ([Fc]B,) | (3z ([Fd]D) (3z ([Fd]D) (3z ([FA]D) | %112
 (3z ([Ec]_B,) (3z ([Ec]B,) (3z ([EG]B,) | (3z ([Fd]D) (3z ([Fd]D) (3z ([FA]D) | %114
 (3z ([Ec]_B,) (3z ([Ec]B,) (3z ([EG]B,) | (3z ([DA]A,) (3z ([DF]A,) (3z ([EG]_B,) | %116
 (3z ([DA]A,) (3z ([DF]A,) (3z ([EG]_B,) | (3z ([_EF]A,) (3z ([EG]_B,) (3z ([E_B]C) | %118
 (3z ([_EA]C) (3z ([EG]C) (3z ([A_e]F) | (3z ([Ad]F) (3z ([Fc]_E) (3z ([F_B]E) | %120
 (3z ([_EA]C) (3z ([EG]_B,) (3z ([EF]A,) | (3z"_dim." ([dg]_B) (3z ([df]B) (3z ([B=e]F) | %122
 (3z ([_Bd]F) (3z ([Fc]D) (3z ([FB]D) | (3z ([DA]A,) (3z ([DG]A,) (3z ([DF]A,) | %124
!<(! (3z (EA,) (3z (DA,) (3z (E!<)!A,) | (3z ([CF]A,) (3z ([DG]_B,) (3z ([F_B]D) | %126
 (3z ([FA]C) (3z ([FG]_B,) (3z ([Fc]B,) | (3z ([Fc]_B,) (3z ([Fc]B,) (3z ([Fc]"_dim."B,) | %128
 (3z ([ec']_B) (3z ([ec']B) (3z ([ec']B) ||[K:Ab]!8va(! .f'.c'.a.c'.e'.b | .c'!8va)!.a.f.g.a.e | %131
 .f.c.A.c.e.B | .c.A.F.G.A.E | .F.C.A,.C.E.B, | .C.A,.F,.A,.E.B, | .F.C.A,.C.E.B, | %136
 .C.A,.F,.A,.E.B, | .F.C.A,.C.E.B, | .C.A,.F,.C.F.C | .G.=B,.G,.B,.F.C | .=D.=B,.G,.B,.F.C | %141
 .G.=B,.F,.B,.G.B, | .F,.=B,.G.B,.F,.B, |!<(! .G.C.=E,.C.G.C | ._G._C._G,.C.G.C!<)! | %145
!>(! .=G.=C.=E,.C.G.C | ._G._C._G,.C.G.C!>)! | .F.=B,.F,.B,.F.B, | .F.=B,.F,.B,.F.B, | %149
 .F.=B,.F,.B,.F.B, | .F.=B,.F,.B,.F.B, | .F.C.A,.C.E._B, | .C.A,.F,.A,.E.B, | .F.C.A,.C.E.B, | %154
 .C.A,.F,.A,.C.A, |!<(! ._F.A,._F,.A,.F.A, |"_cresc." .E.A,.E,.A,.E.A, | ._F.A,._F,.A,.F.A, | %158
 .E.^G,.=E,.G,"_Rit.".E.G,!<)! ||[K:C] .a.e.c.e.g.d | .e.c.A.c.g.d | .a.e.c.e.g.d | .e.c.A.c.g.d | %163
 .a.e.c.e.g.d | .e.c.A.c.g.d | .a.e.c.e.g.d | .e.c.A.c.g.c | .f.B.F.B.f.B | .f.c.F.c.f.c | %169
 .f.B.F.B.f.B | .e.c.E.c.e.c | .e.A.E.A.e.A | .d.A.D.A.d.A | .d.G.D.G.d.G | .c.G.C.G.c.G | %175
 .c.F.C.F.c.F | .B.F.B,.F.B.F | .B.E.B,.E.C.E | .B.E.B,.E.C.E | .B.E.B,.E.C.F | .D.G.E.A.F.B | %181
 .a.e.c.e.g.d | .e.c.A.c.g.d | .a.e.c.e.g.d | .e.c.A.c.g.d | .a.e.c.e.g.d | .e.c.A.c.g.d | %187
 .a.e.c.e.g.d | .e.c.A.B.c.G | .A.E.C.E.G.D | .E.C.A,.B,.C.G, |[K:bass] .A,.E,.C,.E,.G,.D, | %192
 .A,.E,.C,.E,.G,.D, | .A,.C,.G,.D,.A,.C, | .G,.D,.A,.C,.G,.D, | [C,A,]2- [C,A,] z z2 | %196
[K:treble] [CA]2- [CA] z z2 | [ca]2- [ca] z z2 |] %198
V:3
!p! .A, z .E z .A z | .E z .B, z .E z | .C z .E z .G z | .E z .B, z .E z | .A, z .E z .A.E | %5
 .B,.E .C z .E.G | .E.C .B, z .E z | .A, z .A.E.B,.E | .C.E.G.E.B,.E | .A,.E.A.E.B,.E | %10
 .C.E.G.E.B,.E |"^très rythmé" .A,.E.A.E.B,.E | .C.E.G.E.B,.E | .A,.E.A.E.B,.E | .C.E.G.E.B,.E | %15
 .A,.E.A.E.B,.E | .C.E.G.E.B,.E | .A,.E.A.E.B,.E | .C.E.A.E.C.E | .A,.D.A.D.A,.D | .A,.C.A.C.A,.C | %21
 .G,.D.G.D.G,.D | .G,.C.G.C.G,.C |[K:bass] .F,.C.F.C.F,.C | .F,.B,.F.B,.F,.B, | .E,.B,.E.B,.E,.B, | %26
 .E,.G,.E.G,.E,.G, | .D,.F,.A,.F,.D,.F, | .D,.F,.A,.F,.D,.F, | .E,,.B,,.G,.B,,.A,.E, | %30
 .E,,.B,,.G,.B,,.A,.E, | .E,,.B,, .G, z .A, z |[K:treble] .B, z .C z .D z | .A,.E.A.E.B,.E | %34
 .C.E.G.E.B,.E | .A,.E.A.E.B,.E | .C.E.G.E.B,.E | .A,.E.A.E.B,.E | .C.E.G.E.B,.E | .A,.E.A.E.B,.E | %40
 .C.E.A.E.B,.E |[K:bass] .A,,.E,.A,.E,.B,,.E, | .C,.E,.A,.E,.B,,.E, | .A,,,.E,,.A,,.E,,.B,,,.E,, | %44
 .A,,,.E,,.A,,.E,,.B,,,.E,, | .A,,,.E,,.B,,,.E,,.A,,,.E,, | .B,,,.E,,.A,,,.E,,.G,,,.G,, | %47
!p! C,,2 C,2 G,,2 | C,,2 C,2 G,,2 | C,,2 C,2 G,,2 | C,,2 C,2 G,,2 | C,,2 D,2 G,,2 | C,,2 D,2 G,,2 | %53
 C,,2 D,2 G,,2 | C,,2 D,2 G,,2 | .C,,.G,,.D,.G,,.C,,.G,, | .C,,.A,,.C,.A,,.C,,.A,, | %57
 .C,,.G,,.D,.G,,.C,,.G,, | .C,,.A,,.C,.A,,.C,,.A,, |!mf! .E,,.B,,.E,.B,,.E,,.B,, | %60
 .A,,.E,.A,.E,.A,,.E, | .E,,.B,,.E,.B,,.A,,.E, | .E,,.B,,.E,.B,,.A,,.E, |!p! (G,,,2 G,,) z z2 | %64
 (G,,,2 G,,) z z2 | (G,,,2 G,,) z z2 | (G,,,2 G,,) z z2 | C,,2 D,2 G,,2 | C,,2 D,2 G,,2 | %69
 B,,,2 D,2 A,,2 | B,,,2 D,2 A,,2 |!f! .A,,, z[K:treble] .A,.E.B,.E | .C.E.G.E.B,.E | %73
 .A,.E.A.E.B,.E | .C.E.G.E.B,.E | .A,.E.A.E.B,.E | .C.E.G.E.B,.E | .A,.E.A.E.B,.E | .C.E.A.E.C.E | %79
 .A,.E.A.E.B,.E |!f! .A,.C.A.C.A,.C | .G,.D.G.D.G,.D | .G,.C.G.C.G,.C |[K:bass] .F,.C.F.C.F,.C | %84
 .F,.B,.F.B,.F,.B, | .E,.B,.E.B,.E,.B, | .E,.G,.E.G,.E,.G, | .D,.F,.A,.F,.D,.F, | %88
 .D,.F,.A,.F,.D,.F, | .E,,.B,,.G,.B,,.A,.E, | .E,,.B,,.G,.B,,.A,.E, | .E,,.B,, .G, z .A, z | %92
[K:treble] .B, z .C z .D z | .A,.E.A.E.B,.E | .C.E.G.E.B,.E | .A,.E.A.E.B,.E | .C.E.G.E.B,.E | %97
 .A,.E.A.E.B,.E | .C.E.G.E.B,.E | .A,.E.A.E.B,.E | .C.E.A.E.B,.E |[K:bass] .A,,.E,.A,.E,.B,,.E, | %102
 .C,.E,.A,.E,.B,,.E, |"^Senza rit. e" .A,,,.E,,.A,,.E,,.B,,,.E,, | %104
"^senza dim." .A,,,.E,,.A,,.E,,.B,,,.E,, | .A,,,.E,,.B,,,.E,,.A,,,.E,, | %106
 .B,,,.E,,.A,,,.E,,.G,,,.G,, |!ff! F,,,2 G,2 _B,2 | A,2 G,2 C2 | C2 G,2 C2 | G,2 C,2 C,,2 | %111
 !arpeggio!!>![F,,C,D,A,] z D2 A,2 | (C4 G,) z | !arpeggio!!>![F,,C,D,A,] z D2 A,2 | (C4 G,) z | %115
 [F,,C,]2 C2 C,2 | [F,,C,]2 C2 C,2 | [F,,,F,,]2 G,2 _B,2 | A,2 G,2 _E2 | D2 C2 _B,2 | A,2 G,2 F,2 | %121
 [_A,G]2 F2 =E2 | D2 C2 _B,2 | [=B,,A,]2 G,2 F,2 | E,2 D,2 E,2 |!ff! [C,,C,]2 G,2 _B,2 | %126
 A,2 G,2 C2 | C2 G,2 C2 |[K:treble] G2 C2 G2 ||[K:Ab]!p! .F.c.f.c.G.c | .A.c.e.c.G.c | %131
"^sempre stacc." .F,.C.F.C.G,.C | .A,.C.E.C.G,.C |[K:bass] .F,,.C,.F,.C,.G,,.C, | %134
!pp! .A,,.C,.E,.C,.G,,.C, | .F,,.C,.F,.C,.G,,.C, | .A,,.C,.E,.C,.G,,.C, | .F,,.C,.F,.C,.G,,.C, | %138
 .A,,.!1!C,.!3!A,,.!5!F,,.!2!A,,.!3!F,, | .=D,,.G,,.=D,.G,,.E,,.A,, | .F,,.G,,.=D,.G,,.E,,.A,, | %141
 .=D,,.G,,.=D,.G,,.D,,.G,, | .=D,.G,,.=D,,.G,,.D,.G,, | .C,,.G,,.C,.G,,.C,,.G,, | %144
 .E,,._C,.E,.C,.E,,.C, | .=C,,.=G,,.C,.G,,.C,,.G,, | .E,,._C,.E,.C,.E,,.C, | %147
!f! .G,,.=D,.G,.D,.G,,.D, | ._A,,._D,.A,.D,.A,,.D, |!p! .G,,.=D,.G,.D,.G,,.D, | %150
 ._A,,._D,.A,.D,.A,,.D, |!pp! .C,,.A,,.C,.A,,.C,,.G,, | .C,,.F,,.C,.F,,.C,,.G,, | %153
 .C,,.A,,.C,.A,,.C,,.G,, | .C,,.A,,.C,.A,,.C,,.A,, | ._C,,.A,,._C,.A,,.C,,.A,, | %156
 .=C,,.A,,.=C,.A,,.C,,.A,, | ._C,,.A,,._C,.A,,.C,,.A,, | .=C,,.^G,,.=C,.G,,.C,,.G,, || %159
[K:C]!f! .A,,, z[K:treble] .A.E.B,.E | .C.E.G.E.B,.E | .A,.E.A.E.B,.E | .C.E.G.E.B,.E | %163
 .A,.E.A.E.B,.E | .C.E.G.E.B,.E | .A,.E.A.E.B,.E | .C.E.G.E.C.E | .A,.D.A.D.A,.D | .A,.C.A.C.A,.C | %169
 .G,.D.G.D.G,.D | .G,.C.G.C.G,.C |[K:bass] .F,.C.F.C.F,.C | .F,.B,.F.B,.F,.B, | .E,.B,.E.B,.E,.B, | %174
 .E,.G,.E.G,.E,.G, | .D,.F,.A,.F,.D,.F, | .D,.F,.A,.F,.D,.F, | .E,,.B,,.G,.B,,.A,.E, | %178
 .E,,.B,,.G,.B,,.A,.E, | .E,,.B,, .G, z .A, z |[K:treble] .B, z .C z .D z | .A,.E.A.E.B,.E | %182
 .C.E.G.E.B,.E | .A,.E.A.E.B,.E | .C.E.G.E.B,.E | .A,.E.A.E.B,.E | .C.E.G.E.B,.E | .A,.E.A.E.B,.E | %188
 .C.E.A.E.B,.E |[K:bass] .A,,.E,.A,.E,.B,,.E, | .C,.E,.A,.E,.B,,.E, | .A,,,.E,,.A,,.E,,.B,,,.E,, | %192
 .A,,,.E,,.A,,.E,,.B,,,.E,, | .A,,,.E,,.B,,,.E,,.A,,,.E,, | .B,,,.E,,.A,,,.E,,.B,,,.E,, | %195
 [A,,,E,,]2- [A,,,E,,] z z2 | [A,,E,]2- [A,,E,] z z2 | [A,E]2- [A,E] z z2 |] %198
V:4
 x6 | x6 | x6 | x6 | x6 | x6 | x6 | x6 | x6 | x6 | x6 | x6 | x6 | x6 | x6 | x6 | x6 | x6 | x6 | %19
 x6 | x6 | x6 | x6 |[K:bass] x6 | x6 | x6 | x6 | x6 | x6 | x6 | x6 | x6 |[K:treble] x6 | x6 | x6 | %35
 x6 | x6 | x6 | x6 | x6 | x6 |[K:bass] x6 | x6 | x6 | x6 | x6 | x6 | x E, x E, x F, | %48
 x E, x E, x F, | x E, x E, x F, | x E, x F, x G, | x6 | x6 | x6 | x6 | x6 | x6 | x6 | x6 | x6 | %60
 x6 | x6 | x6 | x E, x E, x F, | x E, x E, x F, | x E, x E, x F, | x E, x F, x G, | x6 | x6 | x6 | %70
 x6 | x2[K:treble] x4 | x6 | x6 | x6 | x6 | x6 | x6 | x6 | x6 | x6 | x6 | x6 |[K:bass] x6 | x6 | %85
 x6 | x6 | x6 | x6 | x6 | x6 | x6 |[K:treble] x6 | x6 | x6 | x6 | x6 | x6 | x6 | x6 | x6 | %101
[K:bass] x6 | x6 | x6 | x6 | x6 | x6 | x6 | x6 | x6 | x6 | x6 | x6 | x6 | x6 | x6 | x6 | x6 | x6 | %119
 x6 | x6 | x6 | x6 | x6 | x6 | x6 | x6 | x6 |[K:treble] x6 ||[K:Ab] x6 | x6 | x6 | x6 | %133
[K:bass] x6 | x6 | x6 | x6 | x6 | x6 | x6 | x6 | x6 | x6 | x6 | x6 | x6 | x6 | x6 | x6 | x6 | x6 | %151
 x6 | x6 | x6 | x6 | x6 | x6 | x6 | x6 ||[K:C] x2[K:treble] x4 | x6 | x6 | x6 | x6 | x6 | x6 | x6 | %167
 x6 | x6 | x6 | x6 |[K:bass] x6 | x6 | x6 | x6 | x6 | x6 | x6 | x6 | x6 |[K:treble] x6 | x6 | x6 | %183
 x6 | x6 | x6 | x6 | x6 | x6 |[K:bass] x6 | x6 | x6 | x6 | x6 | x6 | x6 | x6 | x6 |] %198

